X: 65
M:6/8
L:1/8
K:F
|:g|fdd gee|fdd cAA|fdd gee|fdd d2 g|
fdd aa/2b/2a/2g/2|fdd def|cAA "tr"AGF|G3 G2:||

